public/icons/briefcase.svg

<svg width="24" height="25" viewBox="0 0 24 25" fill="none" xmlns="http://www.w3.org/2000/svg">
<path d="M24 7.58716C24 6.42405 23.0537 5.47778 21.8906 5.47778H18.1406V3.9648C18.1406 2.74422 17.1476 1.75122 15.9271 1.75122H8.07295C6.85238 1.75122 5.85938 2.74422 5.85938 3.9648V5.47778H2.10938C0.946266 5.47778 0 6.42405 0 7.58716V10.9151C0 11.5353 0.201937 12.3087 0.9375 13.0673V20.8059C0.9375 21.969 1.88377 22.9153 3.04688 22.9153H20.9531C22.1162 22.9153 23.0625 21.969 23.0625 20.8059V13.0673C23.7977 12.3091 24 11.536 24 10.9151V7.58716ZM7.26562 3.9648C7.26562 3.51963 7.62778 3.15747 8.07295 3.15747H15.9271C16.3723 3.15747 16.7344 3.51963 16.7344 3.9648V5.47778H7.26562V3.9648ZM1.40625 7.58716C1.40625 7.19946 1.72167 6.88403 2.10938 6.88403H21.8906C22.2783 6.88403 22.5938 7.19946 22.5938 7.58716V10.9151C22.5938 12.6452 19.2746 14.057 14.4375 14.4269V13.7747C14.4375 13.3863 14.1227 13.0715 13.7344 13.0715H10.2656C9.87731 13.0715 9.5625 13.3863 9.5625 13.7747V14.4267C4.72973 14.0563 1.40625 12.6408 1.40625 10.9151V7.58716ZM13.0312 14.4778V15.3918C13.0312 15.8958 12.6212 16.3059 12.1172 16.3059H11.8828C11.3788 16.3059 10.9688 15.8958 10.9688 15.3918V14.4778H13.0312ZM20.9531 21.509H3.04688C2.65917 21.509 2.34375 21.1936 2.34375 20.8059V14.0993C4.43738 15.1721 6.63759 15.5858 9.60637 15.8401C9.81586 16.9057 10.7568 17.7122 11.8828 17.7122H12.1172C13.2433 17.7122 14.1843 16.9056 14.3937 15.8399C16.846 15.6623 19.0599 15.2122 20.6764 14.5581C21.0399 14.411 21.3651 14.2573 21.6562 14.0991V20.8059C21.6562 21.1936 21.3408 21.509 20.9531 21.509Z" fill="#AE9F91"/>
</svg>

<svg xmlns="http://www.w3.org/2000/svg" fill="none" viewBox="0 0 24 25"><path fill="#ae9f91" d="M24 7.587c0-1.163-.946-2.11-2.11-2.11h-3.75V3.966c0-1.22-.992-2.214-2.213-2.214H8.073c-1.22 0-2.214.993-2.214 2.214v1.513H2.11A2.11 2.11 0 0 0 0 7.588v3.327c0 .62.202 1.394.938 2.152v7.739c0 1.163.946 2.11 2.109 2.11h17.906c1.163 0 2.11-.947 2.11-2.11v-7.739c.735-.758.937-1.531.937-2.152zM7.266 3.965c0-.445.362-.808.807-.808h7.854c.445 0 .807.363.807.808v1.513H7.266zm-5.86 3.622c0-.388.316-.703.703-.703h19.782c.387 0 .703.315.703.703v3.328c0 1.73-3.32 3.142-8.157 3.512v-.652a.703.703 0 0 0-.703-.703h-3.468a.703.703 0 0 0-.703.703v.652c-4.833-.37-8.157-1.786-8.157-3.512zm11.625 6.89v.915c0 .504-.41.914-.914.914h-.234a.915.915 0 0 1-.914-.914v-.914zm7.922 7.032H3.047a.704.704 0 0 1-.703-.703v-6.707c2.093 1.073 4.294 1.487 7.262 1.741a2.324 2.324 0 0 0 2.277 1.872h.234a2.324 2.324 0 0 0 2.277-1.872c2.452-.178 4.666-.628 6.282-1.282q.546-.22.98-.459v6.707a.704.704 0 0 1-.703.703"/></svg>
